ubuntu-mono-dark/stock/64/stock_person-panel.svg

<?xml version="1.0" encoding="UTF-8" standalone="no"?>
<!-- Created with Inkscape (http://www.inkscape.org/) -->

<svg
   xmlns:dc="http://purl.org/dc/elements/1.1/"
   xmlns:cc="http://creativecommons.org/ns#"
   xmlns:rdf="http://www.w3.org/1999/02/22-rdf-syntax-ns#"
   xmlns:svg="http://www.w3.org/2000/svg"
   xmlns="http://www.w3.org/2000/svg"
   xmlns:sodipodi="http://sodipodi.sourceforge.net/DTD/sodipodi-0.dtd"
   xmlns:inkscape="http://www.inkscape.org/namespaces/inkscape"
   version="1.0"
   width="64"
   height="64"
   id="svg3201"
   inkscape:version="0.48.0 r9654"
   sodipodi:docname="stock_person-panel.svg">
  <metadata
     id="metadata9">
    <rdf:RDF>
      <cc:Work
         rdf:about="">
        <dc:format>image/svg+xml</dc:format>
        <dc:type
           rdf:resource="http://purl.org/dc/dcmitype/StillImage" />
      </cc:Work>
    </rdf:RDF>
  </metadata>
  <sodipodi:namedview
     pagecolor="#ffffff"
     bordercolor="#666666"
     borderopacity="1"
     objecttolerance="10"
     gridtolerance="10"
     guidetolerance="10"
     inkscape:pageopacity="0"
     inkscape:pageshadow="2"
     inkscape:window-width="1280"
     inkscape:window-height="753"
     id="namedview7"
     showgrid="false"
     inkscape:zoom="4.546875"
     inkscape:cx="-1.4295533"
     inkscape:cy="34.309278"
     inkscape:window-x="0"
     inkscape:window-y="24"
     inkscape:window-maximized="1"
     inkscape:current-layer="svg3201" />
  <defs
     id="defs3203" />
  <path
     inkscape:connector-curvature="0"
     style="fill:#000000;fill-opacity:1;fill-rule:nonzero;stroke:none;stroke-width:1.00178742000000010;marker:none;visibility:visible;display:inline;overflow:visible;enable-background:accumulate;opacity:0.3"
     id="rect2382-7"
     d="M 2.9375,2 C 1.864125,2 1,2.8704269 1,3.9516299 L 1,60 5.1474609,58.170347 C 15.406039,53.608941 22.615233,48.371221 22.615234,45.484753 c 0,-2.019901 -2.019427,-5.749385 -4.298828,-7.898003 -1.463452,-1.37949 -2.039645,-2.790056 -2.391601,-5.793901 -0.269148,-2.29708 -0.322962,-4.578248 0.242187,-4.696109 0.963587,-0.200955 0.696542,-3.301022 0.696289,-6.495268 -4.07e-4,-5.09107 0.241082,-6.147095 1.907227,-8.568875 1.045204,-1.519231 2.176985,-2.7749737 2.542969,-2.7749735 0.365984,0 0.484434,-0.3065397 0.242187,-0.701367 -0.252049,-0.4108034 0.02924,-0.5510805 0.666016,-0.3049421 0.667866,0.2581508 1.294017,-0.057314 1.574218,-0.7928496 0.331332,-0.8697283 0.622945,-0.9788654 0.999024,-0.3659307 0.39308,0.6406508 1.013865,0.5328613 2.421875,-0.3964248 1.091363,-0.7203039 2.684669,-1.0171822 4.510742,-1.0063091 5.478221,0.032619 13.058367,2.9876237 15.378906,6.7697158 1.166191,1.9007 1.483399,3.631307 1.483399,8.17245 0,3.168054 -0.05841,6.212175 0.696289,6.464774 0.547702,0.183316 0.511325,2.399029 0.242187,4.696109 -0.351966,3.003845 -0.928149,4.41441 -2.391601,5.793901 -2.277115,2.146463 -4.3291,5.882981 -4.329102,7.898003 0,2.814701 7.649288,8.464671 16.408203,12.136698 L 63,59.207151 63,3.9516299 C 63,2.8704269 62.135875,2 61.0625,2 L 2.9375,2 z" />
  <path
     inkscape:connector-curvature="0"
     style="fill:#dfdbd2;fill-opacity:1;fill-rule:nonzero;stroke:none;stroke-width:1.00178742000000010;marker:none;visibility:visible;display:inline;overflow:visible;enable-background:accumulate"
     id="rect2382"
     d="M 2.9375,1 C 1.864125,1 1,1.8704269 1,2.9516299 L 1,59 5.1474609,57.170347 C 15.406039,52.608941 22.615233,47.371221 22.615234,44.484753 c 0,-2.019901 -2.019427,-5.749385 -4.298828,-7.898003 -1.463452,-1.37949 -2.039645,-2.790056 -2.391601,-5.793901 -0.269148,-2.29708 -0.322962,-4.578248 0.242187,-4.696109 0.963587,-0.200955 0.696542,-3.301022 0.696289,-6.495268 -4.07e-4,-5.09107 0.241082,-6.147095 1.907227,-8.568875 1.045204,-1.5192309 2.176985,-2.7749737 2.542969,-2.7749735 0.365984,0 0.484434,-0.3065397 0.242187,-0.701367 -0.252049,-0.4108034 0.02924,-0.5510805 0.666016,-0.3049421 0.667866,0.2581508 1.294017,-0.057314 1.574218,-0.7928496 0.331332,-0.8697283 0.622945,-0.9788654 0.999024,-0.3659307 0.39308,0.6406508 1.013865,0.5328613 2.421875,-0.3964248 1.091363,-0.7203039 2.684669,-1.0171822 4.510742,-1.0063091 5.478221,0.032619 13.058367,2.9876237 15.378906,6.7697158 1.166191,1.9007 1.483399,3.631307 1.483399,8.17245 0,3.168054 -0.05841,6.212175 0.696289,6.464774 0.547702,0.183316 0.511325,2.399029 0.242187,4.696109 -0.351966,3.003845 -0.928149,4.41441 -2.391601,5.793901 -2.277115,2.146463 -4.3291,5.882981 -4.329102,7.898003 0,2.814701 7.649288,8.464671 16.408203,12.136698 L 63,58.207151 63,2.9516299 C 63,1.8704269 62.135875,1 61.0625,1 L 2.9375,1 z" />
</svg>

<?xml version="1.0" encoding="UTF-8" standalone="no"?>
<!-- Created with Inkscape (http://www.inkscape.org/) -->
<svg
   xmlns:svg="http://www.w3.org/2000/svg"
   xmlns="http://www.w3.org/2000/svg"
   version="1.0"
   width="64"
   height="64"
   id="svg3201">
  <defs
     id="defs3203" />
  <g
     id="layer1">
    <path
       d="M 2.9375,1 C 1.864125,1 1,1.8704269 1,2.9516299 L 1,59 L 5.1474609,57.170347 C 15.406039,52.608941 22.615233,47.371221 22.615234,44.484753 C 22.615234,42.464852 20.595807,38.735368 18.316406,36.58675 C 16.852954,35.20726 16.276761,33.796694 15.924805,30.792849 C 15.655657,28.495769 15.601843,26.214601 16.166992,26.09674 C 17.130579,25.895785 16.863534,22.795718 16.863281,19.601472 C 16.862874,14.510402 17.104363,13.454377 18.770508,11.032597 C 19.815712,9.5133661 20.947493,8.2576233 21.313477,8.2576235 C 21.679461,8.2576235 21.797911,7.9510838 21.555664,7.5562565 C 21.303615,7.1454531 21.584901,7.005176 22.22168,7.2513144 C 22.889546,7.5094652 23.515697,7.1940009 23.795898,6.4584648 C 24.12723,5.5887365 24.418843,5.4795994 24.794922,6.0925341 C 25.188002,6.7331849 25.808787,6.6253954 27.216797,5.6961093 C 28.30816,4.9758054 29.901466,4.6789271 31.727539,4.6898002 C 37.20576,4.7224194 44.785906,7.6774239 47.106445,11.459516 C 48.272636,13.360216 48.589844,15.090823 48.589844,19.631966 C 48.589844,22.80002 48.531436,25.844141 49.286133,26.09674 C 49.833835,26.280056 49.797458,28.495769 49.52832,30.792849 C 49.176354,33.796694 48.600171,35.207259 47.136719,36.58675 C 44.859604,38.733213 42.807619,42.469731 42.807617,44.484753 C 42.807617,47.299454 50.456905,52.949424 59.21582,56.621451 L 63,58.207151 L 63,2.9516299 C 63,1.8704269 62.135875,1 61.0625,1 L 2.9375,1 z"
       id="rect2382"
       style="opacity:1;fill:#eae3d0;fill-opacity:1;fill-rule:nonzero;stroke:none;stroke-width:1.00178742;stroke-linecap:butt;stroke-linejoin:miter;marker:none;marker-start:none;marker-mid:none;marker-end:none;stroke-miterlimit:4;stroke-dasharray:none;stroke-dashoffset:0;stroke-opacity:1;visibility:visible;display:inline;overflow:visible;enable-background:accumulate" />
    <path
       d="M 2.9375,0.46875 C 1.5877047,0.46875 0.46875,1.5793693 0.46875,2.9375 L 0.46875,59 C 0.46780884,59.180183 0.56024962,59.348002 0.71304691,59.4435 C 0.8658442,59.538998 1.0571998,59.548553 1.21875,59.46875 L 5.375,57.625 C 10.530088,55.332826 14.903467,52.889146 18.03125,50.625 C 19.595142,49.492927 20.842219,48.41823 21.71875,47.40625 C 22.595281,46.39427 23.15625,45.437996 23.15625,44.5 C 23.15625,43.31567 22.598705,41.843755 21.78125,40.34375 C 20.963795,38.843745 19.849288,37.343336 18.65625,36.21875 C 17.275056,34.916799 16.815513,33.678277 16.46875,30.71875 C 16.335813,29.584178 16.233201,28.451295 16.25,27.625 C 16.258399,27.211853 16.293681,26.882926 16.34375,26.6875 C 16.368784,26.589787 16.403685,26.535133 16.40625,26.53125 C 16.408815,26.527367 16.343905,26.574166 16.25,26.59375 C 16.503522,26.540878 16.733068,26.401898 16.875,26.21875 C 17.016932,26.035602 17.119354,25.817275 17.1875,25.59375 C 17.323791,25.146699 17.375628,24.620278 17.40625,24 C 17.467493,22.759445 17.406375,21.177621 17.40625,19.59375 C 17.406047,17.056402 17.467339,15.563197 17.71875,14.4375 C 17.970161,13.311803 18.398932,12.504124 19.21875,11.3125 C 19.730305,10.568942 20.253001,9.8873908 20.6875,9.40625 C 20.904749,9.1656796 21.109622,8.9903967 21.25,8.875 C 21.390378,8.7596033 21.519708,8.7812501 21.3125,8.78125 C 21.634036,8.7812498 22.025323,8.591067 22.15625,8.25 C 22.217638,8.0900834 22.212238,7.9319433 22.1875,7.78125 C 22.591238,7.8976851 23.014161,7.8673639 23.375,7.6875 C 23.782545,7.4843547 24.104635,7.1198708 24.28125,6.65625 C 24.325984,6.5388258 24.337207,6.4822263 24.375,6.40625 C 24.50769,6.6108569 24.672443,6.7960484 24.90625,6.90625 C 25.154214,7.0231247 25.451206,7.0455956 25.71875,7 C 26.253838,6.9088088 26.774362,6.6039208 27.5,6.125 C 28.452206,5.4965405 29.949597,5.2082158 31.71875,5.21875 C 34.365476,5.2345095 37.566022,5.9632285 40.375,7.15625 C 43.183978,8.3492715 45.596159,10.022229 46.65625,11.75 C 47.772705,13.569639 48.0625,15.109327 48.0625,19.625 C 48.0625,21.205352 48.045234,22.776216 48.125,24 C 48.164883,24.611892 48.227324,25.130078 48.34375,25.5625 C 48.460176,25.994922 48.635778,26.430006 49.125,26.59375 C 48.962959,26.539515 49.040674,26.515497 49.09375,26.71875 C 49.146826,26.922003 49.174373,27.247534 49.1875,27.65625 C 49.213754,28.473681 49.132577,29.587208 49,30.71875 C 48.65364,33.674747 48.165131,34.914265 46.78125,36.21875 C 45.589158,37.342444 44.473933,38.84296 43.65625,40.34375 C 42.838567,41.84454 42.281251,43.317491 42.28125,44.5 C 42.28125,45.439026 42.858299,46.380882 43.75,47.40625 C 44.641701,48.431618 45.913114,49.53051 47.4375,50.65625 C 50.486272,52.90773 54.614057,55.241917 59.03125,57.09375 L 62.8125,58.6875 C 62.971028,58.753228 63.151782,58.736473 63.295528,58.642726 C 63.439273,58.548979 63.527483,58.390323 63.53125,58.21875 L 63.53125,2.9375 C 63.53125,1.5793693 62.412295,0.46875 61.0625,0.46875 L 2.9375,0.46875 z"
       transform="matrix(0.9989805,0,0,0.9990594,3.2628731e-2,3.2584631e-2)"
       id="path3167"
       style="opacity:0.6;fill:none;fill-opacity:1;fill-rule:evenodd;stroke:#3a3935;stroke-width:1.00098097;stroke-linecap:round;stroke-linejoin:round;marker:none;marker-start:none;marker-mid:none;marker-end:none;stroke-miterlimit:4;stroke-dasharray:none;stroke-dashoffset:0;stroke-opacity:1;visibility:visible;display:inline;overflow:visible;enable-background:accumulate" />
  </g>
</svg>
